X: 21092
T: STOCKPORT HORNPIPE
R: hornpipe
B: K\"ohler's Violin Repository, v.2, 1885 p.109 #2
F: http://www.archive.org/details/klersviolinrepos02rugg
Z: 2012 John Chambers <jc:trillian.mit.edu>
M: C|
L: 1/8
K: G
(uB>A) |\
GB,DG B2((3BAG) | ADFA c2(BA) | GdBG FcAF | GBde (3ded (3cBA |
GB,DG B2((3BAG) | ADFA c2(BA) | GdBG FcAF | G2B2 G2 :|
|: ((3udef) |\
gGBd gfed | eEGB edcB | (AG)AB (cB)cd | egFA GFdf |
gGBd gfed | eEGB edcB | F2 (3gfe (3ded (3cBA | G2B2 G2 :|

%%sep 2 1 500

